X:1
T:Steiner, 87.87 D
T:Ira David Sankey, 1876
T:Steiner, 87.87 D
T:Public Domain
C:Ira David Sankey, 1876
Z:Public Domain
%%score ( 1 2 ) ( 3 4 )
L:1/8
M:6/4
K:F
V:1 treble 
V:2 treble 
V:3 bass 
V:4 bass 
V:1
 [Fc]4 [Fd]2 [Fc]4 [FB]2 | [FA]4 [CG]2 [CF]4 C2 | [CF]4 [FG]2 [FA]4 [FB]2 | %3
 ([Gc]2 [FA]2) F2 [EG]6 | [Fc]4 [Fd]2 [Fc]4 F2 | [FB]4 [FA]2 ([FA]3 [EG]) F2 | %6
 [DF]4 [B,D]2 [A,C]4 [CF]2 | [EG]4 [EA]2 F6 | [EG]4 [^D^F]2 [EG]4 [Gc]2 | [Fd]4 [Ge]2 [Fd]4 [Ec]2 | %10
 [EG]4 [^D^F]2 [EG]4 [Gc]2 | (d2 A2) [F=B]2 [Ec]6 | [Fc]4 [Fd]2 [Fc]4 F2 | %13
 [FB]4 [FA]2 ([FA]3 [EG]) F2 | [DF]4 [B,D]2 [A,C]4 [CF]2 | [EG]4 [EA]2 F6 |] %16
V:2
 x12 | x10 C2 | x12 | x4 F2 x6 | x10 F2 | x10 F2 | x12 | x6 F6 | x12 | x12 | x12 | F4 x8 | x10 F2 | %13
 x10 F2 | x12 | x6 F6 |] %16
V:3
 [F,A,]4 [F,B,]2 [F,A,]4 [F,D]2 | [C,C]4 [C,B,]2 [F,A,]4 [F,A,]2 | [F,A,]4 [F,B,]2 [F,C]4 [F,D]2 | %3
 [F,C]4 [D,=B,]2 [C,C]6 | [F,A,]4 [F,B,]2 [F,A,]4 [F,A,]2 | [F,D]4 [F,C]2 (F,,3 G,,) [A,,C]2 | %6
 [B,,B,]4 [B,,F,]2 [C,F,]4 [C,A,]2 | [C,B,]4 [C,C]2 [F,A,]6 | [C,C]4 [C,C]2 [C,C]4 [E,C]2 | %9
 [G,=B,]4 [G,B,]2 [G,B,]4 [C,C]2 | [C,C]4 [C,C]2 [C,C]4 [E,C]2 | (A,2 D2) [G,D]2 (C4 B,2) | %12
 [F,A,]4 [F,B,]2 [F,A,]4 [F,A,]2 | [F,D]4 [F,C]2 (F,,3 G,,) [A,,C]2 | %14
 [B,,B,]4 [B,,F,]2 [C,F,]4 [C,A,]2 | [C,B,]4 [C,C]2 [F,A,]6 |] %16
V:4
 x12 | x12 | x12 | x12 | x12 | x6 C4 x2 | x12 | x12 | x12 | x12 | x12 | F,4 C,6 x2 | x12 | %13
 x6 C4 x2 | x12 | x12 |] %16

